X:954
T:Polska efter Björkmansmor
R:Polska
Z:Göran Hed 2009-01-06
O:Årsunda, Gästrikland
S:efter Erik Hartwig
M: 3/4
L: 1/8
K:C
CE/2G/2c2GF|EG/2c/2e2ce|ab/2a/2 gg ee|ce/2c/2 GG EE|
F/2G/2F/2E/2 DE FG|AB/2A/2G4:||:GBd2dB|c/2d/2c/2B/2 ce dB|
GBd2dB|c/2d/2c/2B/2 cA G2|ab/2a/2g2e2|ce/2c/2G2E2|
f3/2d/2 BG Bd| d/2f/2d/2B/2c4:|
(:musicend:)

(:music:)
